!!!COM: Palestrina, Giovanni Perluigi da
!!!OPR: Missa Salve regina
!!!OMD: Credo
!!!OTL: Et unam sanctam
**kern	**kern	**kern	**kern	**kern
*Ibass	*Itenor	*Icalto	*Icalto	*Icant
!Bassus	!Tenor	!Altus 2	!Altus 1	!Cantus
*clefF4	*clefGv2	*clefG2	*clefG2	*clefG2
*k[b-]	*k[b-]	*k[b-]	*k[b-]	*k[b-]
*G:dor	*G:dor	*G:dor	*G:dor	*G:dor
*M4/2	*M4/2	*M4/2	*M4/2	*M4/2
=182	=182	=182	=182	=182
0G	0G	1d	1g	1b
.	.	2r	2r	2r
.	.	2g	2b-	2dd
=183	=183	=183	=183	=183
0r	0r	2f#	2a	2dd
.	.	2g	2b-	2dd
.	.	1a	1cc	2ff
.	.	.	.	[2ee
=184	=184	=184	=184	=184
0r	1r	2g	2b-	4ee]
.	.	.	.	4dd
.	.	2f	2a	1dd
.	2r	2.e	2.g	.
.	2g	.	.	2cc#
.	.	4e	4g	.
=185	=185	=185	=185	=185
2r	2f#	1d	2a	1dd
2G	2g	.	2d	.
2F#	2a	1r	2d	1r
2G	2g	.	2d	.
=186	=186	=186	=186	=186
2.A	2f	1r	2.c	2r
.	2.e	.	.	2cc
4A	.	.	4c	.
2G	.	2r	2B-	1dd
.	4d	.	.	.
2F	[2d	2f	2A	.
=187	=187	=187	=187	=187
2E	4d]	2.g	2G	1ee
.	4c#	.	.	.
2E	2c#	.	2G	.
.	.	4g	.	.
1D	1d	2f	2A	2.ff
.	.	2f	2a	.
.	.	.	.	4ff
=188	=188	=188	=188	=188
0r	1G	2b-	2.g	2ee
.	.	2b-	.	2dd
.	.	.	4f	.
.	1A	2a	2e	2dd
.	.	2a	2e	2cc#
=189	=189	=189	=189	=189
1D	0r	2f#	2d	2dd
.	.	2f#	2a	2dd
2.G	.	2.g	2.b-	2.dd
4G	.	4g	4b-	4dd
=190	=190	=190	=190	=190
2G	1r	2g	2b-	2dd
2B-	.	2f	2b-	2dd
2F	2r	2f	2a	2cc
2G	2G	[2d	2g	2b-
=191	=191	=191	=191	=191
1D	2.d	4d]	1f	2a
.	.	4e	.	.
.	.	4f	.	2a
.	4d	4g	.	.
1D	2d	1a	2f	1ff
.	2f	.	2d	.
=192	=192	=192	=192	=192
0r	2c	1a	2e	2ee
.	2d	.	2f	2dd
.	2A	1a	2e	2cc#
.	2A	.	2e	2cc#
=193	=193	=193	=193	=193
2.D	2.d	2.a	2.f#	2.dd
4D	4d	4a	4f#	4dd
2G	2d	2b	2g	2dd
2G	2d	2b	2g	2dd
=194	=194	=194	=194	=194
1C	1c	2cc	1g	1ee-
.	.	1cc	.	.
1G	1d	.	1g	[1dd
.	.	[2b-	.	.
=195	=195	=195	=195	=195
1F	1f	2b-]	0r	2dd]
.	.	2a	.	1cc
1G	2e	2g	.	.
.	[2d	2f	.	2b-
=196	=196	=196	=196	=196
1A	2d]	1e	1r	1a
.	2c#	.	.	.
1D	2d	1d	2r	[1a
.	[2d	.	[2f	.
=197	=197	=197	=197	=197
0r	2d]	1r	2f]	1a]
.	2c	.	2e	.
.	1B-	1d	1g	2r
.	.	.	.	[2dd
=198	=198	=198	=198	=198
1r	1A	1e	1a	2dd]
.	.	.	.	2cc
[1G	2r	2.g	2d	2.b-
.	[2B-	.	2d	.
.	.	4g	.	4cc
=199	=199	=199	=199	=199
2G]	2B-]	4b-	1d	4dd
.	.	4g	.	4ee
2F	2A	2a	.	4ff
.	.	.	.	4dd
1E-	1c	2.g	1G	[1gg
.	.	4a	.	.
=200	=200	=200	=200	=200
1D	1d	2b-	0r	2gg]
.	.	4a	.	2ff
.	.	4g	.	.
2.B-	2.d	[1f	.	2.dd
4B-	4d	.	.	4dd
=201	=201	=201	=201	=201
2B-	2B-	1f]	1r	2dd
2A	2c	.	.	2cc
[1G	1d	2.b-	2.g	2b-
.	.	.	.	2g
.	.	4b-	4g	.
=202	=202	=202	=202	=202
2G]	1d	2b-	2g	1dd
2D	.	2a	2f	.
[1E-	1G	2g	2e-	2cc
.	.	2g	2e-	[2b-
=203	=203	=203	=203	=203
2E-]	2G	2g	2B-	4b-]
.	.	.	.	4cc
2D	2.B-	2f	2B-	4dd
.	.	.	.	8cc
.	.	.	.	8dd
1C	.	2e-	1c	1ee-
.	8A	.	.	.
.	8G	.	.	.
.	2A	2c	.	.
=204	=204	=204	=204	=204
1BB-	1B-	1d	[0f	0dd
2r	1d	2r	.	.
2BB-	.	2b-	.	.
=205	=205	=205	=205	=205
1F	1c	1a	1f]	1r
1BB-	2d	1b-	2r	1dd
.	2B-	.	2b-	.
=206	=206	=206	=206	=206
0r	1f	0r	1a	1cc
.	2B-	.	4b-	1dd
.	.	.	4a	.
.	2B-	.	4g	.
.	.	.	4f	.
=207	=207	=207	=207	=207
0r	2c	0r	2e-	2g
.	2d	.	2f	1b-
.	2e-	.	2g	.
.	2f	.	2f	2a
=208	=208	=208	=208	=208
1r	1c	1r	2f	2g
.	.	.	2e	2g
1F	2r	1a	1f	2f
.	2f	.	.	2cc
=209	=209	=209	=209	=209
1c	1e	1g	1r	1cc
2F	1f	1a	2r	1cc
2F	.	.	2cc	.
=210	=210	=210	=210	=210
2G	2r	2d	2b-	2r
2A	2F	1f	2a	2cc
2B-	2G	.	2d	2b-
[2c	2A	2e	2c	2a
=211	=211	=211	=211	=211
4c]	2B-	2d	0f	2.dd
4B-	.	.	.	.
1B-	2B-	2d	.	.
.	.	.	.	4ee
.	1F	1c	.	2ff
2A	.	.	.	2ff
=212	=212	=212	=212	=212
1B-	0r	2r	2.d	1ff
.	.	4B-	.	.
.	.	4c	4e	.
1r	.	4d	4f	2r
.	.	4e	4g	.
.	.	[2f	[2a	4f
.	.	.	.	4g
=213	=213	=213	=213	=213
0r	0r	2f]	2a]	4a
.	.	.	.	4b-
.	.	2e	2g	1cc
.	.	2f	2a	.
.	.	2d	4f	2b
.	.	.	4g	.
=214	=214	=214	=214	=214
0r	0r	2c	4a	2cc
.	.	.	4g	.
.	.	2B-	2.b-	2dd
.	.	1e-	.	1g
.	.	.	4a	.
.	.	.	[2g	.
=215	=215	=215	=215	=215
0r	0r	1d	2g]	1a
.	.	.	2f#	.
.	.	1G	1g	2g
.	.	.	.	4b-
.	.	.	.	4cc
=216	=216	=216	=216	=216
2.BB-	1r	4B-	0f	4dd
.	.	4c	.	4ee
.	.	4d	.	2.ff
4C	.	4e	.	.
4D	2.F	4f	.	.
4E	.	4g	.	4ee
[2F	.	[2a	.	[2cc
.	4G	.	.	.
=217	=217	=217	=217	=217
2F]	4A	2a]	2r	4cc]
.	4B-	.	.	4dd
2E	1c	2g	2g	2ee
2F	.	2f	2a	1dd
2G	2B	2d	[2g	.
=218	=218	=218	=218	=218
2C	2c	2e	2g]	2r
2BB-	2d	2f	2.b-	2.dd
1E-	1G	2g	.	.
.	.	.	4a	8cc
.	.	.	.	8b-
.	.	2G	[2g	2cc
=219	=219	=219	=219	=219
0D	0A	0d	2g]	0dd
.	.	.	4f#	.
.	.	.	4e	.
.	.	.	1f#	.
=220	=220	=220	=220	=220
0G	0G	0d	0g	0b
==	==	==	==	==
*-	*-	*-	*-	*-
!!!CDT: 1525/^1526/-1594/2/2
!!!OCY: Italia
!!!AGN: Mass (Paraphrase)
!!!AST: renaissance, vocal
!!!ASW: Antiphon
!!!PWK: Masses, Book 11
!!!RNB: Cadence finals: D
!!!YOR: Le Opere Complete, v. 28, p. 185
!!!YOO: Rome, Italy: Fratelli Scalera
!!!END: 1992//
!!!EED: John Miller
!!!YEC: Copyright 2000, John Miller
!!!YEN: United States of America
!!!YEM: Rights to all derivative electronic formats reserved.
!!!YEM: Refer to licensing agreement for further details.
!!!YEM: This file must be accompanied by the licensing agreement.
!!!YEM: A copy of the licensing agreement may be found at http://www.music-cog.ohio-state.edu/HumdrumDatabases/Palestrina/license.txt
!!!EMD: converted to Humdrum by Bret Aarden
